public/library/tether-text-light.svg

<svg width="124" height="27" viewBox="0 0 124 27" fill="none" xmlns="http://www.w3.org/2000/svg">
<path fill-rule="evenodd" clip-rule="evenodd" d="M7.83298 0.461914H26.5152C26.961 0.461914 27.3728 0.697187 27.5951 1.07888L33.038 10.4239C33.3203 10.9085 33.2364 11.5202 32.8338 11.9132L17.8521 26.5369C17.3668 27.0106 16.5861 27.0106 16.1007 26.5369L1.13927 11.9329C0.727308 11.5308 0.650166 10.9013 0.953105 10.4137L6.77114 1.0489C6.99772 0.684184 7.39981 0.461914 7.83298 0.461914ZM24.103 4.63413V7.25619H18.7812V9.07416C22.5189 9.26843 25.3231 10.0663 25.344 11.0227L25.3438 13.0165C25.323 13.9729 22.5189 14.7708 18.7812 14.9651V19.4265H15.2474V14.9651C11.5098 14.7708 8.7055 13.9729 8.6847 13.0165L8.68482 11.0227C8.70562 10.0663 11.5098 9.26843 15.2474 9.07416V7.25619H9.92562V4.63413H24.103ZM17.0143 13.5953C21.0031 13.5953 24.3371 12.9206 25.153 12.0196C24.4611 11.2555 21.9584 10.6542 18.7812 10.4891V12.3925C18.2117 12.4221 17.6206 12.4377 17.0143 12.4377C16.4081 12.4377 15.8169 12.4221 15.2474 12.3925V10.4891C12.0702 10.6542 9.56758 11.2555 8.87569 12.0196C9.69161 12.9206 13.0256 13.5953 17.0143 13.5953Z" fill="#009393"/>
<path d="M40.3311 5.533L44.6497 5.05315V9.19183H48.3985V12.7907H44.6197V18.3689C44.6197 19.6885 45.1795 20.3483 46.2992 20.3483C47.0189 20.3483 47.6187 20.2283 48.0986 19.9884L49.0883 23.5872C48.1086 23.9671 47.0689 24.1871 45.9693 24.247C44.2298 24.327 42.8503 23.9171 41.8306 23.0174C40.8309 22.0977 40.3311 20.5482 40.3311 18.3689V12.7907H37.6919V9.19183H40.3311V5.533Z" fill="#009393"/>
<path d="M64.5617 17.9191H53.6752C53.7951 18.6788 54.205 19.3086 54.9048 19.8084C55.6046 20.2883 56.5343 20.5282 57.6939 20.5282C59.3534 20.5282 60.6329 20.1383 61.5327 19.3586L63.9619 22.0577C62.4824 23.5173 60.363 24.247 57.6039 24.247C54.9648 24.247 52.9154 23.5373 51.4559 22.1177C50.0163 20.6982 49.2966 18.7788 49.2966 16.3595C49.2966 14.0803 50.0063 12.2409 51.4259 10.8413C52.8454 9.42176 54.7548 8.71198 57.1541 8.71198C59.7732 8.71198 61.7726 9.51173 63.1521 11.1112C64.5517 12.7107 65.0216 14.98 64.5617 17.9191ZM53.6752 14.7701H60.6929C60.6529 14.0103 60.2931 13.4305 59.6133 13.0306C58.9335 12.6107 58.1138 12.4008 57.1541 12.4008C56.2943 12.4008 55.5546 12.6107 54.9348 13.0306C54.315 13.4505 53.8951 14.0303 53.6752 14.7701Z" fill="#009393"/>
<path d="M68.1621 5.533L72.4808 5.05315V9.19183H76.2296V12.7907H72.4508V18.3689C72.4508 19.6885 73.0106 20.3483 74.1302 20.3483C74.85 20.3483 75.4498 20.2283 75.9297 19.9884L76.9194 23.5872C75.9397 23.9671 74.9 24.1871 73.8004 24.247C72.0609 24.327 70.6813 23.9171 69.6617 23.0174C68.662 22.0977 68.1621 20.5482 68.1621 18.3689V12.7907H65.523V9.19183H68.1621V5.533Z" fill="#009393"/>
<path d="M78.5387 2.92383H82.8873V10.9313C83.947 9.55172 85.4465 8.86194 87.3859 8.86194C91.3246 8.86194 93.294 11.2312 93.294 15.9697V23.9171H88.9754V15.9997C88.9754 14.98 88.7155 14.1902 88.1956 13.6304C87.6958 13.0706 87.016 12.7907 86.1563 12.7907C85.2166 12.7907 84.4268 13.1106 83.787 13.7504C83.1672 14.3902 82.8573 15.2799 82.8573 16.4195V23.9171H78.5387V2.92383Z" fill="#009393"/>
<path d="M110.231 17.9191H99.3448C99.4648 18.6788 99.8747 19.3086 100.574 19.8084C101.274 20.2883 102.204 20.5282 103.364 20.5282C105.023 20.5282 106.303 20.1383 107.202 19.3586L109.632 22.0577C108.152 23.5173 106.033 24.247 103.274 24.247C100.634 24.247 98.5851 23.5373 97.1255 22.1177C95.686 20.6982 94.9662 18.7788 94.9662 16.3595C94.9662 14.0803 95.676 12.2409 97.0956 10.8413C98.5151 9.42176 100.424 8.71198 102.824 8.71198C105.443 8.71198 107.442 9.51173 108.822 11.1112C110.221 12.7107 110.691 14.98 110.231 17.9191ZM99.3448 14.7701H106.363C106.323 14.0103 105.963 13.4305 105.283 13.0306C104.603 12.6107 103.783 12.4008 102.824 12.4008C101.964 12.4008 101.224 12.6107 100.604 13.0306C99.9846 13.4505 99.5648 14.0303 99.3448 14.7701Z" fill="#009393"/>
<path d="M112.022 9.13185H116.041L116.371 10.7513C117.311 9.43176 118.63 8.77197 120.33 8.77197C121.729 8.77197 122.939 9.22182 123.959 10.1215L122.159 13.5404C121.459 13.0406 120.67 12.7907 119.79 12.7907C118.81 12.7907 117.991 13.1006 117.331 13.7204C116.671 14.3202 116.341 15.1499 116.341 16.2096V23.9171H112.022V9.13185Z" fill="#009393"/>
</svg>

<svg xmlns="http://www.w3.org/2000/svg" width="124" height="27" fill="none" viewBox="0 0 124 27"><path fill="#009393" fill-rule="evenodd" d="M7.833.462h18.682c.446 0 .858.235 1.08.617l5.443 9.345a1.22 1.22 0 0 1-.204 1.49L17.852 26.536a1.257 1.257 0 0 1-1.751 0L1.139 11.933a1.22 1.22 0 0 1-.186-1.52L6.771 1.05A1.25 1.25 0 0 1 7.833.462m16.27 4.172v2.622h-5.322v1.818c3.738.194 6.542.992 6.563 1.949v1.994c-.021.956-2.825 1.754-6.563 1.948v4.462h-3.534v-4.462c-3.737-.194-6.541-.992-6.562-1.948v-1.994c.02-.957 2.825-1.755 6.562-1.949V7.256H9.926V4.634zm-7.089 8.961c3.99 0 7.323-.674 8.139-1.575-.692-.764-3.195-1.366-6.372-1.53v1.902a34 34 0 0 1-3.534 0V10.49c-3.177.165-5.68.766-6.371 1.53.816.902 4.15 1.576 8.138 1.576" clip-rule="evenodd"/><path fill="#009393" d="m40.331 5.533 4.319-.48v4.139h3.749v3.599h-3.78v5.578q0 1.98 1.68 1.98 1.08 0 1.8-.36l.99 3.598q-1.47.57-3.12.66-2.61.12-4.138-1.23-1.5-1.38-1.5-4.648V12.79h-2.64v-3.6h2.64zM64.562 17.92H53.675q.18 1.139 1.23 1.888 1.05.72 2.789.72 2.49 0 3.839-1.17l2.429 2.7q-2.22 2.19-6.358 2.189-3.96 0-6.148-2.13-2.16-2.129-2.16-5.757 0-3.42 2.13-5.519 2.13-2.13 5.728-2.129 3.93 0 5.998 2.4 2.1 2.399 1.41 6.807m-10.887-3.15h7.018q-.06-1.14-1.08-1.74-1.02-.63-2.459-.63-1.29 0-2.22.63-.929.63-1.259 1.74M68.162 5.533l4.319-.48v4.139h3.749v3.599h-3.78v5.578q0 1.98 1.68 1.98 1.08 0 1.8-.36l.99 3.598q-1.47.57-3.12.66-2.61.12-4.138-1.23-1.5-1.38-1.5-4.648V12.79h-2.639v-3.6h2.64zM78.539 2.924h4.348v8.007q1.59-2.07 4.499-2.07 5.908 0 5.908 7.109v7.947h-4.319V16q0-1.53-.78-2.37-.75-.84-2.039-.84-1.41 0-2.369.96-.93.96-.93 2.67v7.497H78.54zM110.231 17.92H99.345q.18 1.139 1.229 1.888 1.05.72 2.79.72 2.489 0 3.838-1.17l2.43 2.7q-2.22 2.19-6.358 2.189-3.96 0-6.148-2.13-2.16-2.129-2.16-5.757 0-3.42 2.13-5.519 2.129-2.13 5.728-2.129 3.928 0 5.998 2.4 2.099 2.399 1.409 6.807m-10.886-3.15h7.018q-.06-1.14-1.08-1.74-1.02-.63-2.459-.63-1.29 0-2.22.63t-1.26 1.74M112.022 9.132h4.019l.33 1.62q1.41-1.98 3.959-1.98 2.099 0 3.629 1.35l-1.8 3.418q-1.05-.75-2.369-.75-1.47 0-2.459.93-.99.9-.99 2.49v7.707h-4.319z"/></svg>
